X: 11746
T: Eleanor Rigby
R: jig
M: 6/8
K: Amixolydian
GAB G2E|GAB dcB|cBA BAG|BAA A2E|
GAB =c2B|GAB G2E|GAB dcB|cBA BAG||
BAA A2E|GAB =c2B|AGA BGE|G3 AFD|
E3 E2D|GAB =c2B|AGA BGE|G3 AFD|EFE E2A||
Bee e2f|agf efd|BGD E2E|GBG AGA|
Bee e2f|agf efd|BGD E2E|GBG AGA|
Bee e2f|gfe ed=c|B2A BGE|GBG AGA|
Bee efg|agf efd|BGD E2E|BGE FDB||

